Simply-Orange-Circles/scalable/apps/libreoffice-impress.svg

<?xml version="1.0" encoding="UTF-8" standalone="no"?>
<svg
   xmlns:dc="http://purl.org/dc/elements/1.1/"
   xmlns:cc="http://creativecommons.org/ns#"
   xmlns:rdf="http://www.w3.org/1999/02/22-rdf-syntax-ns#"
   xmlns:svg="http://www.w3.org/2000/svg"
   xmlns="http://www.w3.org/2000/svg"
   xmlns:sodipodi="http://sodipodi.sourceforge.net/DTD/sodipodi-0.dtd"
   xmlns:inkscape="http://www.inkscape.org/namespaces/inkscape"
   width="48"
   height="48"
   viewBox="0 0 12.7 12.7"
   version="1.1"
   id="svg4"
   sodipodi:docname="libreoffice-impress.svg"
   inkscape:version="0.92.4 (5da689c313, 2019-01-14)">
  <metadata
     id="metadata10">
    <rdf:RDF>
      <cc:Work
         rdf:about="">
        <dc:format>image/svg+xml</dc:format>
        <dc:type
           rdf:resource="http://purl.org/dc/dcmitype/StillImage" />
        <dc:title></dc:title>
      </cc:Work>
    </rdf:RDF>
  </metadata>
  <defs
     id="defs8" />
  <sodipodi:namedview
     pagecolor="#ffffff"
     bordercolor="#666666"
     borderopacity="1"
     objecttolerance="10"
     gridtolerance="10"
     guidetolerance="10"
     inkscape:pageopacity="0"
     inkscape:pageshadow="2"
     inkscape:window-width="1087"
     inkscape:window-height="480"
     id="namedview6"
     showgrid="false"
     inkscape:zoom="4.9166667"
     inkscape:cx="2.1355932"
     inkscape:cy="24"
     inkscape:window-x="0"
     inkscape:window-y="25"
     inkscape:window-maximized="0"
     inkscape:current-layer="svg4" />
  <path
     d="m 6.344,0.073 a 6.29,6.29 0 0 0 -6.29,6.29 6.29,6.29 0 0 0 6.29,6.288 6.29,6.29 0 0 0 6.29,-6.289 6.29,6.29 0 0 0 -6.29,-6.29 z M 6.326,1.009 A 5.407,5.407 0 0 1 11.733,6.416 5.407,5.407 0 0 1 6.326,11.823 5.407,5.407 0 0 1 0.92,6.416 5.407,5.407 0 0 1 6.326,1.01 Z M 2.295,3.622 a 0.111,0.111 0 0 0 0,0.222 h 5.38 a 0.111,0.111 0 1 0 0,-0.222 z m 6.352,0.316 v 2.39 h 2.39 c 0,-1.594 -0.797,-2.39 -2.39,-2.39 z M 7.836,4.65 A 2.482,2.474 0 0 0 5.368,7.133 2.482,2.474 0 0 0 7.855,9.598 2.482,2.474 0 0 0 10.332,7.124 H 7.85 Z M 2.295,4.748 a 0.111,0.111 0 0 0 0,0.222 h 3.578 a 0.11,0.11 0 0 0 0.11,-0.112 0.11,0.11 0 0 0 -0.11,-0.11 z m 0,1.126 a 0.11,0.11 0 1 0 0,0.22 h 2.69 a 0.11,0.11 0 1 0 0,-0.22 z m 0,1.125 a 0.111,0.111 0 0 0 0,0.222 h 2.551 a 0.111,0.111 0 1 0 0,-0.222 z"
     id="path2"
     inkscape:connector-curvature="0"
     style="fill:#ff7f2a" />
</svg>

<svg xmlns="http://www.w3.org/2000/svg" width="48" height="48" viewBox="0 0 12.7 12.7"><path fill="#ff7f2a" d="M6.34.07a6.29 6.29 0 0 0-6.29 6.3 6.29 6.29 0 0 0 6.3 6.28 6.29 6.29 0 0 0 6.28-6.29A6.29 6.29 0 0 0 6.34.07zm-.01.94a5.4 5.4 0 0 1 5.4 5.4 5.4 5.4 0 0 1-5.4 5.41 5.4 5.4 0 0 1-5.41-5.4A5.4 5.4 0 0 1 6.32 1zM2.29 3.62a.11.11 0 0 0 0 .22h5.38a.11.11 0 1 0 0-.22H2.3zm6.36.32v2.39h2.39c0-1.6-.8-2.4-2.4-2.4zm-.81.71a2.48 2.47 0 0 0-2.47 2.48A2.48 2.47 0 0 0 7.86 9.6a2.48 2.47 0 0 0 2.47-2.48H7.85l-.01-2.47zm-5.54.1a.11.11 0 0 0 0 .22h3.57a.11.11 0 0 0 .11-.11.11.11 0 0 0-.1-.11H2.3zm0 1.12a.11.11 0 1 0 0 .22h2.69a.11.11 0 1 0 0-.22h-2.7zM2.3 7a.11.11 0 0 0 0 .22h2.55a.11.11 0 1 0 0-.22H2.3z"/></svg>
